X: 20581
Q: "Moderate."
M: C
L: 1/8
K: G
g2 |\
{f}e2dc d2cB | c2d>c (cB)AG |\
(c>B)cd e2dc | (B>A)Bc d2B2 |\
g2gf e2fg | (fe)d^c d2d2 |\
d2(cB) c2de |
c2BA B2cd |\
d2g2 e2d2 | c2Bc {B}A2Gd |\
d2(ed) d2cB | B2cA G2G2 |\
g2gg f2f2 | e2ee d2z2 |\
g2gg f2f2 | e2ee d3c |
(Bg)e^c d2AA | (Bg)e^c {e}Hd2(fg) |\
(af)dc (Bd)gb | (af)dc (Bd)gb |\
(af)dc B2Bc |d2e=f "^(.)"e2^fg |\
{f}e2dc d2cB | c2dc B2dd |\
g2fe edcB | (BA)GF G2 |]


